Modules/BetterCms.Module.Root/Scss/assets/icons/revert.svg

<svg xmlns="http://www.w3.org/2000/svg" width="20" height="17" viewBox="0 0 20 17"><path d="m1.582 17.21c-.872 0-1.582-.71-1.582-1.582v-11.861c0-.872.71-1.582 1.582-1.582h3.295c.595 0 .922.693.922.923 0 .239-.317.932-.922.932h-2.491c-.295 0-.534.239-.534.533v10.229c0 .294.239.533.534.533l15.236.021c.294 0 .533-.24.533-.534v-10.249c0-.294-.239-.533-.533-.533h-6l1.058.96c.172.163.266.374.266.584 0 .18-.07.345-.198.467l-.077.124c-.178.178-.367.254-.567.254-.199 0-.388-.076-.53-.212l-2.667-2.434-.19-.179c-.143-.136-.226-.329-.225-.526-.001-.197.079-.384.224-.523l.175-.168c.01-.009.021-.018.033-.026l2.614-2.365c.138-.131.326-.206.525-.206.2 0 .388.075.531.212l.149.208c.092.08.162.246.162.424 0 .211-.095.423-.261.581l-1.081.97h6.86c.872 0 1.582.71 1.582 1.582v11.861c0 .872-.71 1.582-1.582 1.582h-16.836" fill="#d2cfcf" fill-rule="evenodd"/></svg>

<svg xmlns="http://www.w3.org/2000/svg" xmlns:xlink="http://www.w3.org/1999/xlink" preserveAspectRatio="xMidYMid" width="20" height="17" viewBox="0 0 20 17">
  <defs>
    <style>
      .cls-1 {
        fill: #d2cfcf;
        fill-rule: evenodd;
      }
    </style>
  </defs>
  <path d="M1.582,17.210 C0.710,17.210 0.000,16.500 0.000,15.628 L0.000,3.767 C0.000,2.895 0.710,2.185 1.582,2.185 L4.877,2.185 C5.472,2.185 5.799,2.878 5.799,3.108 C5.799,3.347 5.482,4.040 4.877,4.040 L2.386,4.040 C2.091,4.040 1.852,4.279 1.852,4.573 L1.852,14.802 C1.852,15.096 2.091,15.335 2.386,15.335 L17.622,15.356 C17.916,15.356 18.155,15.116 18.155,14.822 L18.155,4.573 C18.155,4.279 17.916,4.040 17.622,4.040 L11.617,4.040 L12.675,5.000 C12.847,5.163 12.941,5.374 12.941,5.584 C12.941,5.764 12.871,5.929 12.743,6.051 L12.666,6.175 C12.488,6.353 12.299,6.429 12.099,6.429 C11.900,6.429 11.711,6.353 11.569,6.217 L8.902,3.783 L8.712,3.604 C8.569,3.468 8.486,3.275 8.487,3.078 C8.486,2.881 8.566,2.694 8.711,2.555 L8.886,2.387 C8.896,2.378 8.907,2.369 8.919,2.361 L11.533,-0.004 C11.671,-0.135 11.859,-0.210 12.058,-0.210 C12.258,-0.210 12.446,-0.135 12.589,0.002 L12.738,0.210 C12.830,0.290 12.900,0.456 12.900,0.634 C12.900,0.845 12.805,1.057 12.639,1.215 L11.558,2.185 L18.418,2.185 C19.290,2.185 20.000,2.895 20.000,3.767 L20.000,15.628 C20.000,16.500 19.290,17.210 18.418,17.210 L1.582,17.210 Z" class="cls-1"/>
</svg>
